X: 6439
T: Castleblaney Piper, The
R: jig
M: 6/8
K: Dmajor
|:FDF ABc|dAG FED|~G3 FGA|BGE AGE|
~F3 ABc|dAG FED|dfa gec|dAF D3:|
|:afd fec|dAG FED|~G3 FGA|BGE E2b|
afd fec|dAG FED|dfa gec|dAF D3:|

